X:1
T:Shennopsy Jig
S:Linda Relph
C:Linda Relph
% Thanksgiving '93
R:jig
Z:original tune
M:6/8
K:D
A|:"D"dfa "A"(gfe)|"D"faf (def)|"G"gdB "D"(fdA)|"E"efe "A"(cBc)|
"D"dAF "G"(BGE)|"D"FAd (AFD)|"G"GBG "D"(FAF)|1 "A"EFE "D"D2 A:|2 "A"EFE "D"D2 B,||
|:"A"A,CE (GFE)|"D"FAF (DEF)|"E"^GBG (EFG)|"A"ABc {d}(cAc)|
"D"dAF "Em"(BGE)|"F#m"FAd "G"(AFD)|"A"GDB, "A"(A,CE)|1 "A"GFE "D"D2 B,:|2 "A"GFE "D"D3||
W:
W: Copyright Linda Relph 1993
